lib/svgs/import-project.svg

<svg xmlns="http://www.w3.org/2000/svg" viewBox="0 0 20 20">
    <path fill="#000" fill-rule="evenodd" d="M10.7,10.1847281 L10.7,17.5999 C10.7,17.9312708 10.4313708,18.1999 10.1,18.1999 C9.76862915,18.1999 9.5,17.9312708 9.5,17.5999 L9.5,10.1849526 L7.79648629,11.8878418 C7.56212876,12.1221135 7.18222978,12.1220438 6.94795816,11.8876863 C6.71368655,11.6533288 6.71375619,11.2734298 6.94811371,11.0391582 L9.65666361,8.33160113 C9.76638921,8.21134925 9.92438355,8.1359 10.1,8.1359 C10.2714419,8.1359 10.4260895,8.2078049 10.5354302,8.32310204 L13.2515641,11.0392359 C13.4858786,11.2735505 13.4858786,11.6534495 13.2515641,11.8877641 C13.0172495,12.1220786 12.6373505,12.1220786 12.4030359,11.8877641 L10.7,10.1847281 L10.7,10.1847281 L10.7,10.1847281 L10.7,10.1847281 Z M3.20050005,5.9272 L16.9964456,5.9272 L17.0005,12.9090004 L15.5545,12.909 C15.2231292,12.909 14.9545,13.1776292 14.9545,13.509 C14.9545,13.8403708 15.2231292,14.109 15.5545,14.109 L17.6005,14.109 C17.9318708,14.109 18.2005,13.8403708 18.2005,13.509 L18.2005,2.6 C18.2005,2.26862915 17.9318708,2 17.6005,2 L2.6005,2 C2.26912915,2 2.0005,2.26862915 2.0005,2.6 L2.0005,5.30247946 C2.00016774,5.31067832 2,5.31891957 2,5.3272 C2,5.33548043 2.00016774,5.34372168 2.0005,5.35192054 L2.0005,13.509 C2.0005,13.8403708 2.26912915,14.109 2.6005,14.109 L4.6455,14.109 C4.97687085,14.109 5.2455,13.8403708 5.2455,13.509 C5.2455,13.1776292 4.97687085,12.909 4.6455,12.909 L3.20050005,12.9090004 L3.20050005,5.9272 L3.20050005,5.9272 L3.20050005,5.9272 L3.20050005,5.9272 Z M16.9957487,4.7272 L3.20050005,4.7272 L3.20050005,3.20000005 L16.9948619,3.20000005 L16.9957487,4.7272 L16.9957487,4.7272 L16.9957487,4.7272 L16.9957487,4.7272 Z"/>
</svg>

<svg xmlns="http://www.w3.org/2000/svg" viewBox="0 0 20 20">
    <path fill="#000" fill-rule="evenodd" d="M10.7 10.185V17.6a.6.6 0 0 1-1.2 0v-7.415l-1.704 1.703a.6.6 0 1 1-.848-.849l2.709-2.707a.598.598 0 0 1 .878-.009l2.717 2.716a.6.6 0 0 1-.849.849L10.7 10.185M3.2 5.927h13.796l.005 6.982h-1.447a.6.6 0 0 0 0 1.2H17.6a.6.6 0 0 0 .6-.6V2.6a.6.6 0 0 0-.6-.6h-15a.6.6 0 0 0-.6.6v2.702a.61.61 0 0 0 0 .05v8.157a.6.6 0 0 0 .6.6h2.046a.6.6 0 0 0 0-1.2H3.2V5.927m13.795-1.2H3.2V3.2h13.794v1.527"/>
</svg>
